public/images/spend.svg

<svg height="183.252" viewBox="0 0 183.252 183.252" width="183.252" xmlns="http://www.w3.org/2000/svg"><path d="m0 0h183.252v183.252h-183.252z" fill="none"/><path d="m138.439 80.355v-61.084a15.316 15.316 0 0 0 -15.271-15.271h-106.897a15.316 15.316 0 0 0 -15.271 15.271v61.084a15.316 15.316 0 0 0 15.271 15.271h106.9a15.316 15.316 0 0 0 15.268-15.271zm-68.72-7.636a22.906 22.906 0 1 1 22.907-22.906 22.876 22.876 0 0 1 -22.907 22.906zm99.261-45.813v83.994a15.316 15.316 0 0 1 -15.271 15.271h-129.803v-15.271h129.8v-83.994z" fill="#fff" transform="translate(6.635 26.542)"/></svg>

<svg id="payments-24px" xmlns="http://www.w3.org/2000/svg" width="183.252" height="183.252" viewBox="0 0 183.252 183.252">
  <path id="Path_6303" data-name="Path 6303" d="M0,0H183.252V183.252H0Z" fill="none"/>
  <path id="Path_6304" data-name="Path 6304" d="M138.439,80.355V19.271A15.316,15.316,0,0,0,123.168,4H16.271A15.316,15.316,0,0,0,1,19.271V80.355A15.316,15.316,0,0,0,16.271,95.626h106.9A15.316,15.316,0,0,0,138.439,80.355ZM69.719,72.719A22.906,22.906,0,1,1,92.626,49.813,22.876,22.876,0,0,1,69.719,72.719Zm99.261-45.813V110.9a15.316,15.316,0,0,1-15.271,15.271H23.906V110.9h129.8V26.906Z" transform="translate(6.635 26.542)" fill="#fff"/>
</svg>
